svgs/light/square-terminal.svg

<svg xmlns="http://www.w3.org/2000/svg" viewBox="0 0 448 512"><!--! Font Awesome Pro 6.0.0-alpha3 by @fontawesome - https://fontawesome.com License - https://fontawesome.com/license (Commercial License) --><path d="M384 32H64C28.65 32 0 60.66 0 96v320c0 35.34 28.65 64 64 64h320c35.35 0 64-28.66 64-64V96C448 60.66 419.3 32 384 32zM416 416c0 17.64-14.36 32-32 32H64c-17.64 0-32-14.36-32-32V96c0-17.64 14.36-32 32-32h320c17.64 0 32 14.36 32 32V416zM224 256c0-4.656-2.047-9.094-5.594-12.16l-112-96C99.74 142.1 89.63 142.9 83.86 149.6S78.88 166.4 85.6 172.2L183.4 256l-97.83 83.84c-6.719 5.75-7.5 15.88-1.734 22.56C87.02 366.1 91.5 368 96 368c3.688 0 7.391-1.281 10.41-3.844l112-96C221.1 265.1 224 260.7 224 256zM368 352h-160C199.2 352 192 359.2 192 368S199.2 384 208 384h160c8.844 0 16-7.156 16-16S376.8 352 368 352z"/></svg>

<svg xmlns="http://www.w3.org/2000/svg" viewBox="0 0 448 512"><!--! Font Awesome Pro 6.4.2 by @fontawesome - https://fontawesome.com License - https://fontawesome.com/license (Commercial License) Copyright 2023 Fonticons, Inc. --><path d="M384 64c17.7 0 32 14.3 32 32V416c0 17.7-14.3 32-32 32H64c-17.7 0-32-14.3-32-32V96c0-17.7 14.3-32 32-32H384zM64 32C28.7 32 0 60.7 0 96V416c0 35.3 28.7 64 64 64H384c35.3 0 64-28.7 64-64V96c0-35.3-28.7-64-64-64H64zM83.9 149.6c-5.8 6.7-5 16.8 1.7 22.6L183.4 256 85.6 339.9c-6.7 5.8-7.5 15.8-1.7 22.6s15.9 7.5 22.6 1.7l112-96c3.5-3 5.6-7.5 5.6-12.1s-2-9.1-5.6-12.1l-112-96c-6.7-5.8-16.8-5-22.6 1.7zM208 352c-8.8 0-16 7.2-16 16s7.2 16 16 16H368c8.8 0 16-7.2 16-16s-7.2-16-16-16H208z"/></svg>
